X:469
T: Erkennungszeichen (178a), S. 390
N: T0357
O: Luxemburg
S: Singendes Volk, Esch-Alzette, 1937 posth.]
N: Straen, fff Witry, 17.1.1933;
N: (178b)- Rodershausen, fff Lutgen, !930,
N: mitgeteilt, hhh Josef Bour (Lehrer)
R: Tage-, Wchter-, Fenstergang-, Stndchenlieder, Liebeslied]
M: 3/4
L: 1/16
K: G
G2G2 | G2D2D4G2A2 | B2G2G4
A2B2 | c4B4B2GB | A4z4
A2B2 | c4c2c2B2G2 | A2B2A4
B2A2 | G4B2A2G2F2 | G4z4
A2B2 | c4c2c2B2G2 | A2B2A4
B2A2 | G4B2A2G2F2 | G4z4

